icons/general-hash-1-filled.svg

<svg viewBox="0 0 24 24"><path fill="currentColor" d="M10 14v-4h4v4z"/><path fill="currentColor" fill-rule="evenodd" d="M18 2.4a3.6 3.6 0 0 1 3.6 3.6v12a3.6 3.6 0 0 1-3.6 3.6h-12a3.6 3.6 0 0 1-3.6-3.6v-12a3.6 3.6 0 0 1 3.6-3.6zm-8 3.6a1 1 0 1 0-2 0v2h-2a1 1 0 1 0 0 2h2v4h-2a1 1 0 1 0 0 2h2v2a1 1 0 0 0 2 0v-2h4v2a1 1 0 0 0 2 0v-2h2a1 1 0 0 0 0-2h-2v-4h2a1 1 0 0 0 0-2h-2v-2a1 1 0 0 0-2 0v2h-4z" clip-rule="evenodd"/></svg>

<svg viewBox="0 0 24 24"><path fill="currentColor" d="M10 14v-4h4v4z"/><path fill="currentColor" fill-rule="evenodd" d="M18 2.4A3.6 3.6 0 0 1 21.6 6v12a3.6 3.6 0 0 1-3.6 3.6H6A3.6 3.6 0 0 1 2.4 18V6A3.6 3.6 0 0 1 6 2.4zM10 6a1 1 0 1 0-2 0v2H6a1 1 0 1 0 0 2h2v4H6a1 1 0 1 0 0 2h2v2a1 1 0 0 0 2 0v-2h4v2a1 1 0 0 0 2 0v-2h2a1 1 0 0 0 0-2h-2v-4h2a1 1 0 0 0 0-2h-2V6a1 1 0 0 0-2 0v2h-4z" clip-rule="evenodd"/></svg>
